packages/icons/svg/32/Camera.svg

<svg width="32" height="32" viewBox="0 0 32 32" fill="none" xmlns="http://www.w3.org/2000/svg">
<path fill-rule="evenodd" clip-rule="evenodd" d="M13.8284 5C13.298 5 12.7893 5.21071 12.4142 5.58579L10 8H7C5.89543 8 5 8.89543 5 10V24C5 25.1046 5.89543 26 7 26H25C26.1046 26 27 25.1046 27 24V10C27 8.89543 26.1046 8 25 8H22L19.5858 5.58579C19.2107 5.21071 18.702 5 18.1716 5H13.8284ZM16 11C12.6863 11 10 13.6863 10 17C10 20.3137 12.6863 23 16 23C19.3137 23 22 20.3137 22 17C22 13.6863 19.3137 11 16 11ZM16 13C13.7909 13 12 14.7909 12 17C12 19.2091 13.7909 21 16 21C18.2091 21 20 19.2091 20 17C20 14.7909 18.2091 13 16 13Z" fill="#858585"/>
</svg>

<svg width="32" height="32" fill="none" xmlns="http://www.w3.org/2000/svg" viewBox="0 0 32 32"><path fill-rule="evenodd" clip-rule="evenodd" d="M13.828 5a2 2 0 00-1.414.586L10 8H7a2 2 0 00-2 2v14a2 2 0 002 2h18a2 2 0 002-2V10a2 2 0 00-2-2h-3l-2.414-2.414A2 2 0 0018.172 5h-4.344zM16 11a6 6 0 100 12 6 6 0 000-12zm0 2a4 4 0 100 8 4 4 0 000-8z" fill="currentColor"></path></svg>
